static/card-icons/comment-review.svg

<svg height="682.66669" viewBox="0 0 682.66669 682.66669" width="682.66669" xmlns="http://www.w3.org/2000/svg"><g style="fill:none;stroke:#000;stroke-width:30;stroke-linecap:round;stroke-linejoin:round;stroke-miterlimit:10"><path d="m0 0v-160c0-22.092 17.909-40 40-40h100l40-60 40 60h100c22.092 0 40 17.908 40 40v160c0 22.092-17.908 40-40 40h-280c-22.091 0-40-17.908-40-40z" transform="matrix(1.3333333 0 0 -1.3333333 182.6666621 74.6666852)"/><path d="m0 0h-110" transform="matrix(1.3333333 0 0 -1.3333333 246.6666605 341.3333452)"/><path d="m0 0h-242" transform="matrix(1.3333333 0 0 -1.3333333 422.6666561 421.3333432)"/><path d="m0 0h-240" transform="matrix(1.3333333 0 0 -1.3333333 419.9999895 501.3333412)"/><path d="m0 0h-82c-22.091 0-40-17.908-40-40v-160c0-22.092 17.909-40 40-40h100l40-60 40 60h100c22.092 0 40 17.908 40 40v140" transform="matrix(1.3333333 0 0 -1.3333333 182.6666621 261.3333472)"/><path d="m0 0 21.631-43.83 48.369-7.028-35-34.117 8.263-48.173-43.263 22.745-43.263-22.745 8.263 48.173-35 34.117 48.369 7.028z" transform="matrix(1.3333333 0 0 -1.3333333 422.6666561 92.56775141914)"/></g></svg>

<?xml version="1.0" encoding="UTF-8" standalone="no"?>
<!-- Created with Inkscape (http://www.inkscape.org/) -->

<svg
   version="1.1"
   id="svg3423"
   xml:space="preserve"
   width="682.66669"
   height="682.66669"
   viewBox="0 0 682.66669 682.66669"
   xmlns="http://www.w3.org/2000/svg"
   xmlns:svg="http://www.w3.org/2000/svg"><defs
     id="defs3427"><clipPath
       clipPathUnits="userSpaceOnUse"
       id="clipPath3437"><path
         d="M 0,512 H 512 V 0 H 0 Z"
         id="path3435" /></clipPath></defs><g
     id="g3429"
     transform="matrix(1.3333333,0,0,-1.3333333,0,682.66667)"><g
       id="g3431"><g
         id="g3433"
         clipPath="url(#clipPath3437)"><g
           id="g3439"
           transform="translate(137,456)"><path
             d="m 0,0 v -160 c 0,-22.092 17.909,-40 40,-40 h 100 l 40,-60 40,60 h 100 c 22.092,0 40,17.908 40,40 V 0 c 0,22.092 -17.908,40 -40,40 H 40 C 17.909,40 0,22.092 0,0 Z"
             style="fill:none;stroke:#000000;stroke-width:30;stroke-linecap:round;stroke-linejoin:round;stroke-miterlimit:10;stroke-dasharray:none;stroke-opacity:1"
             id="path3441" /></g><g
           id="g3443"
           transform="translate(185,256)"><path
             d="M 0,0 H -110"
             style="fill:none;stroke:#000000;stroke-width:30;stroke-linecap:round;stroke-linejoin:round;stroke-miterlimit:10;stroke-dasharray:none;stroke-opacity:1"
             id="path3445" /></g><g
           id="g3447"
           transform="translate(317,196)"><path
             d="M 0,0 H -242"
             style="fill:none;stroke:#000000;stroke-width:30;stroke-linecap:round;stroke-linejoin:round;stroke-miterlimit:10;stroke-dasharray:none;stroke-opacity:1"
             id="path3449" /></g><g
           id="g3451"
           transform="translate(315,136)"><path
             d="M 0,0 H -240"
             style="fill:none;stroke:#000000;stroke-width:30;stroke-linecap:round;stroke-linejoin:round;stroke-miterlimit:10;stroke-dasharray:none;stroke-opacity:1"
             id="path3453" /></g><g
           id="g3455"
           transform="translate(137,316)"><path
             d="m 0,0 h -82 c -22.091,0 -40,-17.908 -40,-40 v -160 c 0,-22.092 17.909,-40 40,-40 H 18 l 40,-60 40,60 h 100 c 22.092,0 40,17.908 40,40 v 140"
             style="fill:none;stroke:#000000;stroke-width:30;stroke-linecap:round;stroke-linejoin:round;stroke-miterlimit:10;stroke-dasharray:none;stroke-opacity:1"
             id="path3457" /></g><g
           id="g3459"
           transform="translate(317,442.5742)"><path
             d="M 0,0 21.631,-43.83 70,-50.858 35,-84.975 43.263,-133.148 0,-110.403 l -43.263,-22.745 8.263,48.173 -35,34.117 48.369,7.028 z"
             style="fill:none;stroke:#000000;stroke-width:30;stroke-linecap:round;stroke-linejoin:round;stroke-miterlimit:10;stroke-dasharray:none;stroke-opacity:1"
             id="path3461" /></g></g></g></g></svg>
